packages/ffe-icons/icons/open/300/sm/grid_view.svg

<svg xmlns="http://www.w3.org/2000/svg" height="20" viewBox="0 -960 960 960" width="20"><path d="M215.736-528q-21.274 0-36.504-15.73-15.231-15.731-15.231-36.269V-744q0-21.238 15.407-36.618 15.406-15.381 36.68-15.381h164.177q21.274 0 36.505 15.381Q432-765.238 432-744v164.001q0 20.538-15.406 36.269Q401.188-528 379.914-528H215.736Zm0 363.999q-21.274 0-36.504-15.407-15.231-15.406-15.231-36.68v-164.177q0-21.274 15.407-36.505Q194.814-432 216.088-432h164.177q21.274 0 36.505 15.406Q432-401.188 432-379.914v164.178q0 21.274-15.406 36.504-15.406 15.231-36.68 15.231H215.736ZM579.999-528q-20.538 0-36.269-15.73Q528-559.461 528-579.999V-744q0-21.238 15.73-36.618 15.731-15.381 36.269-15.381H744q21.238 0 36.618 15.381 15.381 15.38 15.381 36.618v164.001q0 20.538-15.381 36.269Q765.238-528 744-528H579.999Zm0 363.999q-20.538 0-36.269-15.407Q528-194.814 528-216.088v-164.177q0-21.274 15.73-36.505Q559.461-432 579.999-432H744q21.238 0 36.618 15.406 15.381 15.406 15.381 36.68v164.178q0 21.274-15.381 36.504-15.38 15.231-36.618 15.231H579.999ZM216-579.999h164.001V-744H216v164.001Zm363.999 0H744V-744H579.999v164.001Zm0 363.999H744v-164.001H579.999V-216ZM216-216h164.001v-164.001H216V-216Zm363.999-363.999Zm0 199.998Zm-199.998 0Zm0-199.998Z"/></svg>

<svg xmlns="http://www.w3.org/2000/svg" height="20" viewBox="0 -960 960 960" width="20"><path d="M215.74-528q-21.28 0-36.51-15.73Q164-559.46 164-580v-164q0-21.24 15.41-36.62Q194.81-796 216.09-796h164.18q21.27 0 36.5 15.38T432-744v164q0 20.54-15.41 36.27Q401.19-528 379.91-528H215.74Zm0 364q-21.28 0-36.51-15.41Q164-194.81 164-216.09v-164.18q0-21.27 15.41-36.5Q194.81-432 216.09-432h164.18q21.27 0 36.5 15.41Q432-401.19 432-379.91v164.17q0 21.28-15.41 36.51Q401.19-164 379.91-164H215.74ZM580-528q-20.54 0-36.27-15.73Q528-559.46 528-580v-164q0-21.24 15.73-36.62Q559.46-796 580-796h164q21.24 0 36.62 15.38Q796-765.24 796-744v164q0 20.54-15.38 36.27Q765.24-528 744-528H580Zm0 364q-20.54 0-36.27-15.41Q528-194.81 528-216.09v-164.18q0-21.27 15.73-36.5T580-432h164q21.24 0 36.62 15.41Q796-401.19 796-379.91v164.17q0 21.28-15.38 36.51Q765.24-164 744-164H580ZM216-580h164v-164H216v164Zm364 0h164v-164H580v164Zm0 364h164v-164H580v164Zm-364 0h164v-164H216v164Zm364-364Zm0 200Zm-200 0Zm0-200Z"/></svg>
